assets/images/sections/amazon-web-services/lines.svg

<svg width="318" height="271" viewBox="0 0 318 271" version="1.1" xmlns="http://www.w3.org/2000/svg" xmlns:xlink="http://www.w3.org/1999/xlink">
<title>Group 28 Copy</title>
<desc>Created using Figma</desc>
<g id="Canvas" transform="translate(-625 -5353)">
<g id="Group 28 Copy" opacity="0.09">
<g id="Line">
<use xlink:href="#path0_stroke" transform="translate(626 5354.57)" fill="#FFFFFF"/>
</g>
<g id="Line Copy 22">
<use xlink:href="#path0_stroke" transform="translate(787.799 5354.57)" fill="#FFFFFF"/>
</g>
<g id="Line Copy 8">
<use xlink:href="#path1_stroke" transform="translate(638.244 5423.36)" fill="#FFFFFF"/>
</g>
<g id="Line Copy 23">
<use xlink:href="#path1_stroke" transform="translate(800.044 5423.36)" fill="#FFFFFF"/>
</g>
<g id="Line Copy 9">
<use xlink:href="#path2_stroke" transform="translate(649.614 5423.36)" fill="#FFFFFF"/>
</g>
<g id="Line Copy 24">
<use xlink:href="#path2_stroke" transform="translate(811.413 5423.36)" fill="#FFFFFF"/>
</g>
<g id="Line Copy 10">
<use xlink:href="#path3_stroke" transform="translate(660.984 5385.6)" fill="#FFFFFF"/>
</g>
<g id="Line Copy 25">
<use xlink:href="#path3_stroke" transform="translate(822.783 5385.6)" fill="#FFFFFF"/>
</g>
<g id="Line Copy 11">
<use xlink:href="#path4_stroke" transform="translate(673.228 5428.76)" fill="#FFFFFF"/>
</g>
<g id="Line Copy 26">
<use xlink:href="#path4_stroke" transform="translate(835.027 5428.76)" fill="#FFFFFF"/>
</g>
<g id="Line Copy 12">
<use xlink:href="#path5_stroke" transform="translate(683.723 5412.57)" fill="#FFFFFF"/>
</g>
<g id="Line Copy 27">
<use xlink:href="#path5_stroke" transform="translate(845.522 5412.57)" fill="#FFFFFF"/>
</g>
<g id="Line Copy 13">
<use xlink:href="#path6_stroke" transform="translate(694.218 5358.62)" fill="#FFFFFF"/>
</g>
<g id="Line Copy 28">
<use xlink:href="#path6_stroke" transform="translate(856.018 5358.62)" fill="#FFFFFF"/>
</g>
<g id="Line Copy 14">
<use xlink:href="#path6_stroke" transform="translate(704.713 5439.55)" fill="#FFFFFF"/>
</g>
<g id="Line Copy 29">
<use xlink:href="#path6_stroke" transform="translate(866.513 5439.55)" fill="#FFFFFF"/>
</g>
<g id="Line Copy 15">
<use xlink:href="#path6_stroke" transform="translate(715.208 5385.6)" fill="#FFFFFF"/>
</g>
<g id="Line Copy 30">
<use xlink:href="#path6_stroke" transform="translate(877.008 5385.6)" fill="#FFFFFF"/>
</g>
<g id="Line Copy 16">
<use xlink:href="#path7_stroke" transform="translate(725.703 5423.36)" fill="#FFFFFF"/>
</g>
<g id="Line Copy 31">
<use xlink:href="#path7_stroke" transform="translate(887.503 5423.36)" fill="#FFFFFF"/>
</g>
<g id="Line Copy 17">
<use xlink:href="#path8_stroke" transform="translate(736.198 5405.83)" fill="#FFFFFF"/>
</g>
<g id="Line Copy 32">
<use xlink:href="#path8_stroke" transform="translate(897.998 5405.83)" fill="#FFFFFF"/>
</g>
<g id="Line Copy 18">
<use xlink:href="#path9_stroke" transform="translate(747.568 5372.1)" fill="#FFFFFF"/>
</g>
<g id="Line Copy 33">
<use xlink:href="#path10_stroke" transform="translate(908.493 5370.76)" fill="#FFFFFF"/>
</g>
<g id="Line Copy 19">
<use xlink:href="#path11_stroke" transform="translate(757.189 5395.04)" fill="#FFFFFF"/>
</g>
<g id="Line Copy 34">
<use xlink:href="#path11_stroke" transform="translate(918.988 5395.04)" fill="#FFFFFF"/>
</g>
<g id="Line Copy 20">
<use xlink:href="#path6_stroke" transform="translate(767.684 5428.76)" fill="#FFFFFF"/>
</g>
<g id="Line Copy 35">
<use xlink:href="#path6_stroke" transform="translate(929.483 5428.76)" fill="#FFFFFF"/>
</g>
<g id="Line Copy 21">
<use xlink:href="#path6_stroke" transform="translate(778.179 5370.76)" fill="#FFFFFF"/>
</g>
<g id="Line Copy 36">
<use xlink:href="#path6_stroke" transform="translate(939.978 5370.76)" fill="#FFFFFF"/>
</g>
</g>
</g>
<defs>
<path id="path0_stroke" d="M -0.250817 220.528L -0.250817 222.528L 3.74918 222.528L 3.74918 220.528L -0.250817 220.528ZM 3.74918 0.570986L 3.74918 -1.42901L -0.250817 -1.42901L -0.250817 0.570986L 3.74918 0.570986ZM 3.74918 220.528L 3.74918 0.570986L -0.250817 0.570986L -0.250817 220.528L 3.74918 220.528Z"/>
<path id="path1_stroke" d="M -1.12541 151.739L -1.12541 153.739L 2.87459 153.739L 2.87459 151.739L -1.12541 151.739ZM 2.87459 1.29437L 2.87459 -0.705633L -1.12541 -0.705633L -1.12541 1.29437L 2.87459 1.29437ZM 2.87459 151.739L 2.87459 1.29437L -1.12541 1.29437L -1.12541 151.739L 2.87459 151.739Z"/>
<path id="path2_stroke" d="M -1.12541 129.512L -1.12541 131.512L 2.87459 131.512L 2.87459 129.512L -1.12541 129.512ZM 2.87459 1.29437L 2.87459 -0.705633L -1.12541 -0.705633L -1.12541 1.29437L 2.87459 1.29437ZM 2.87459 129.512L 2.87459 1.29437L -1.12541 1.29437L -1.12541 129.512L 2.87459 129.512Z"/>
<path id="path3_stroke" d="M -1.12541 134.908L -1.12541 136.908L 2.87459 136.908L 2.87459 134.908L -1.12541 134.908ZM 2.87459 1.34198L 2.87459 -0.658018L -1.12541 -0.658018L -1.12541 1.34198L 2.87459 1.34198ZM 2.87459 134.908L 2.87459 1.34198L -1.12541 1.34198L -1.12541 134.908L 2.87459 134.908Z"/>
<path id="path4_stroke" d="M -1.12541 192.92L -1.12541 194.92L 2.87459 194.92L 2.87459 192.92L -1.12541 192.92ZM 2.87459 1.34198L 2.87459 -0.658018L -1.12541 -0.658018L -1.12541 1.34198L 2.87459 1.34198ZM 2.87459 192.92L 2.87459 1.34198L -1.12541 1.34198L -1.12541 192.92L 2.87459 192.92Z"/>
<path id="path5_stroke" d="M -1.12541 147.467L -1.12541 149.467L 2.87459 149.467L 2.87459 147.467L -1.12541 147.467ZM 2.87459 0L 2.87459 -2L -1.12541 -2L -1.12541 0L 2.87459 0ZM 2.87459 147.467L 2.87459 0L -1.12541 0L -1.12541 147.467L 2.87459 147.467Z"/>
<path id="path6_stroke" d="M -1.12541 164.586L -1.12541 166.586L 2.87459 166.586L 2.87459 164.586L -1.12541 164.586ZM 2.87459 1.34322L 2.87459 -0.656779L -1.12541 -0.656779L -1.12541 1.34322L 2.87459 1.34322ZM 2.87459 164.586L 2.87459 1.34322L -1.12541 1.34322L -1.12541 164.586L 2.87459 164.586Z"/>
<path id="path7_stroke" d="M -1.12541 87.6715L -1.12541 89.6715L 2.87459 89.6715L 2.87459 87.6715L -1.12541 87.6715ZM 2.87459 0L 2.87459 -2L -1.12541 -2L -1.12541 0L 2.87459 0ZM 2.87459 87.6715L 2.87459 0L -1.12541 0L -1.12541 87.6715L 2.87459 87.6715Z"/>
<path id="path8_stroke" d="M -1.12541 183.71L -1.12541 185.71L 2.87459 185.71L 2.87459 183.71L -1.12541 183.71ZM 2.87459 1.34322L 2.87459 -0.656779L -1.12541 -0.656779L -1.12541 1.34322L 2.87459 1.34322ZM 2.87459 183.71L 2.87459 1.34322L -1.12541 1.34322L -1.12541 183.71L 2.87459 183.71Z"/>
<path id="path9_stroke" d="M -2 100.144L -2 102.144L 2 102.144L 2 100.144L -2 100.144ZM 2 0L 2 -2L -2 -2L -2 0L 2 0ZM 2 100.144L 2 0L -2 0L -2 100.144L 2 100.144Z"/>
<path id="path10_stroke" d="M -1.12541 101.487L -1.12541 103.487L 2.87459 103.487L 2.87459 101.487L -1.12541 101.487ZM 2.87459 1.34322L 2.87459 -0.656779L -1.12541 -0.656779L -1.12541 1.34322L 2.87459 1.34322ZM 2.87459 101.487L 2.87459 1.34322L -1.12541 1.34322L -1.12541 101.487L 2.87459 101.487Z"/>
<path id="path11_stroke" d="M -1.12541 152.51L -1.12541 154.51L 2.87459 154.51L 2.87459 152.51L -1.12541 152.51ZM 2.87459 1.34322L 2.87459 -0.656779L -1.12541 -0.656779L -1.12541 1.34322L 2.87459 1.34322ZM 2.87459 152.51L 2.87459 1.34322L -1.12541 1.34322L -1.12541 152.51L 2.87459 152.51Z"/>
</defs>
</svg>

<svg xmlns="http://www.w3.org/2000/svg" xmlns:xlink="http://www.w3.org/1999/xlink" width="318" height="271"><g fill="#fff" transform="translate(-625 -5353)" opacity=".1"><use xlink:href="#A" x="626" y="5354.57"/><use xlink:href="#A" x="787.799" y="5354.57"/><use xlink:href="#B" x="638.244" y="5423.36"/><use xlink:href="#B" x="800.044" y="5423.36"/><use xlink:href="#C" x="649.614" y="5423.36"/><use xlink:href="#C" x="811.413" y="5423.36"/><use xlink:href="#D" x="660.984" y="5385.6"/><use xlink:href="#D" x="822.783" y="5385.6"/><use xlink:href="#E" x="673.228" y="5428.76"/><use xlink:href="#E" x="835.027" y="5428.76"/><use xlink:href="#F" x="683.723" y="5412.57"/><use xlink:href="#F" x="845.522" y="5412.57"/><use xlink:href="#G" x="694.218" y="5358.62"/><use xlink:href="#G" x="856.018" y="5358.62"/><use xlink:href="#G" x="704.713" y="5439.55"/><use xlink:href="#G" x="866.513" y="5439.55"/><use xlink:href="#G" x="715.208" y="5385.6"/><use xlink:href="#G" x="877.008" y="5385.6"/><use xlink:href="#H" x="725.703" y="5423.36"/><use xlink:href="#H" x="887.503" y="5423.36"/><use xlink:href="#I" x="736.198" y="5405.83"/><use xlink:href="#I" x="897.998" y="5405.83"/><use xlink:href="#J" x="747.568" y="5372.1"/><use xlink:href="#K" x="908.493" y="5370.76"/><use xlink:href="#L" x="757.189" y="5395.04"/><use xlink:href="#L" x="918.988" y="5395.04"/><use xlink:href="#G" x="767.684" y="5428.76"/><use xlink:href="#G" x="929.483" y="5428.76"/><use xlink:href="#G" x="778.179" y="5370.76"/><use xlink:href="#G" x="939.978" y="5370.76"/></g><defs><path id="A" d="M-.25 220.528v2h4v-2h-4zM3.75.57v-2h-4v2h4zm0 219.957V.57h-4v219.957h4z"/><path id="B" d="M-1.125 151.74v2h4v-2h-4zm4-150.445v-2h-4v2h4zm0 150.445V1.294h-4V151.74h4z"/><path id="C" d="M-1.125 129.512v2h4v-2h-4zm4-128.218v-2h-4v2h4zm0 128.218V1.294h-4v128.218h4z"/><path id="D" d="M-1.125 134.908v2h4v-2h-4zm4-133.566v-2h-4v2h4zm0 133.566V1.342h-4v133.566h4z"/><path id="E" d="M-1.125 192.92v2h4v-2h-4zm4-191.578v-2h-4v2h4zm0 191.578V1.342h-4V192.92h4z"/><path id="F" d="M-1.125 147.467v2h4v-2h-4zM2.875 0v-2h-4v2h4zm0 147.467V0h-4v147.467h4z"/><path id="G" d="M-1.125 164.586v2h4v-2h-4zm4-163.243v-2h-4v2h4zm0 163.243V1.343h-4v163.243h4z"/><path id="H" d="M-1.125 87.672v2h4v-2h-4zm4-87.67v-2h-4v2h4zm0 87.672V0h-4v87.672h4z"/><path id="I" d="M-1.125 183.7v2h4v-2h-4zm4-182.367v-2h-4v2h4zm0 182.367V1.343h-4V183.7h4z"/><path id="J" d="M-2 100.144v2h4v-2h-4zM2 0v-2h-4v2h4zm0 100.144V0h-4v100.144h4z"/><path id="K" d="M-1.125 101.487v2h4v-2h-4zm4-100.144v-2h-4v2h4zm0 100.144V1.343h-4v100.144h4z"/><path id="L" d="M-1.125 152.5v2h4v-2h-4zm4-151.167v-2h-4v2h4zm0 151.167V1.343h-4V152.5h4z"/></defs></svg>
